X:1
T:Title
%%score { ( 1 3 ) | ( 2 4 ) }
L:1/8
M:6/8
K:Db
V:1 treble nm="Grand Piano"
V:3 treble 
V:2 bass 
V:4 bass 
V:1
 z3 z2[Q:1/4=87] [FA] | [FA][GB][FA] [Fd][Ac][GB] | [FA]3 [DF]2 [DA] | [CA][CE][CE] [CE][CA][EG] | %4
 [DF]3- [DF]2 [FA] | [FA][GB][FA] [Fd][Ac][GB] | [FA]3 F2 F | EEA cAB | %8
[M:5/8] [CEA]-[CEA]- [CEA]3 |[M:1/8] [DFA] |[M:3/4] [DFA]>[DFA] [DFA][A,DF] [A,EG][DFA] | [GB]6 | %12
 [=GB]>[GB] [GB][GB] [Gc][Gd] | [Ac]6 | [Fd]>[Fd] [Fd] [FA]2 [FA] | B=A B[Bd] cB | %16
 A>A d[Ec] [DB][Ec] |[M:5/8] [Fd]-[Fd]- [Fd]3 |] %18
V:2
 z3 z2 [D,D] | [D,D][D,D][D,D] [D,A,][D,A,][D,D] | [D,D]3 [D,A,]2 [D,F,] | %3
 [A,,F,][A,,A,][A,,A,] [A,,A,][A,,A,][A,,A,] | [D,A,]3- [D,A,]2 [D,D] | %5
 [D,D][D,D][D,D] [D,A,][D,A,][D,D] | [D,D]3 [D,A,D]2 [D,A,D] | %7
 [E,A,C][E,A,C][E,A,C] [E,A,E][E,CE][E,DE] |[M:5/8] A,,-A,,- A,,3 |[M:1/8] D, | %10
[M:3/4] D,>D, D,D, D,D, | G,2 G, G,2 [G,DG] | [E,E]>[E,E] [E,E][E,E] [E,E][E,E] | %13
 [A,E]2 A, A,2 [A,G] | [D,A,]>[D,A,] [D,A,] [D,D]2 [D,D] | %15
 [G,DG][G,CG] .[G,DG]2[K:treble] =A[G,DG] | [A,DF]>[A,DF] [A,F][K:bass][A,,A,] [A,,A,][A,,A,] | %17
[M:5/8] [D,A,]-[D,A,]- [D,A,]3 |] %18
V:3
 x6 | x6 | x6 | x6 | x6 | x6 | x6 | x6 |[M:5/8] x5 |[M:1/8] x |[M:3/4] x6 | D2 D D2 B | x6 | %13
 z2 E E2 c | x6 | x6 | x6 |[M:5/8] x5 |] %18
V:4
 x6 | x6 | x6 | x6 | x6 | x6 | x6 | x6 |[M:5/8] x5 |[M:1/8] x |[M:3/4] x6 | x6 | x6 | x6 | x6 | %15
 z2 z .[G,D]3[K:treble] | x3[K:bass] x3 |[M:5/8] x5 |] %18

